X: 12713
T: Father John Angus Rankin
R: reel
M: 4/4
K: Bminor
C|"Bm"B,2BA BdcB|"A"cAeA cAAC|"Bm"B,2 BA BdcB|"A"Afec "Bm"dBBC|
"Bm"B,2 BA BdcB|"A"cAeA cAAe|"D"{g}fedc "Bm"dcBA|"D"FD"A"EC "Bm"DB,B,||
g|"D"f2 df afdf|"A"cAeA cAAg|"D"f/f/f df afdf|"A"cAec "Bm"dBBg|
"D"(ef)df afdf|"A"A/A/A cA eAce|"D"{g}fedc "Bm"dcBA|"D"FD"A"EC "Bm"DB,B,||

